shelter/assets/icons/help/icon-collars-leashes.svg

<svg width="60" height="60" viewBox="0 0 60 60" fill="none" xmlns="http://www.w3.org/2000/svg">
<path d="M57.297 10.2511C55.7379 8.99675 53.5393 7.88136 50.7617 6.93613C45.1984 5.04273 37.825 4 29.9997 4C22.1744 4 14.8011 5.04285 9.23787 6.93613C6.4603 7.88136 4.26163 8.99675 2.70257 10.2511C0.909373 11.6942 0 13.2863 0 14.983V28.0989C0 29.7957 0.909373 31.3878 2.70269 32.8308C4.26175 34.0851 6.4603 35.2005 9.23799 36.1458C14.5225 37.9443 21.4409 38.9745 28.8281 39.0733V43.7755H24.7869C24.3392 41.4099 22.2567 39.6156 19.7629 39.6156C16.9435 39.6156 14.6499 41.9093 14.6499 44.7284C14.6499 45.9542 15.0847 47.1148 15.8539 48.0249C15.075 48.9466 14.6484 50.1147 14.6499 51.3214C14.6499 54.1407 16.9435 56.4343 19.7629 56.4343C22.2567 56.4343 24.3392 54.6398 24.7869 52.2744H35.2131C35.6608 54.6399 37.7433 56.4343 40.2371 56.4343C43.0565 56.4343 45.3501 54.1406 45.3501 51.3214C45.3501 50.0956 44.9153 48.935 44.1461 48.0249C44.925 47.1032 45.3516 45.9351 45.3501 44.7284C45.3501 41.9091 43.0565 39.6156 40.2371 39.6156C37.7433 39.6156 35.6608 41.41 35.2131 43.7755H31.1719V39.0733C38.5591 38.9745 45.4775 37.9443 50.762 36.1458C53.5396 35.2005 55.7382 34.0851 57.2973 32.8308C59.0906 31.3878 60 29.7957 60 28.0989V14.983C59.9996 13.2863 59.0903 11.6942 57.297 10.2511ZM36.3022 46.1193C36.4615 46.1193 36.6191 46.0868 36.7655 46.0238C36.9118 45.9608 37.0438 45.8686 37.1533 45.7528C37.2628 45.6371 37.3476 45.5003 37.4024 45.3507C37.4573 45.2011 37.481 45.0419 37.4723 44.8828C37.4694 44.8314 37.4679 44.78 37.4677 44.7286C37.4677 43.2016 38.71 41.9594 40.2369 41.9594C41.7639 41.9594 43.0062 43.2017 43.0062 44.7286C43.0062 45.6643 42.5377 46.5303 41.753 47.0453C41.5905 47.152 41.4571 47.2974 41.3648 47.4684C41.2725 47.6394 41.2242 47.8307 41.2242 48.025C41.2242 48.2194 41.2725 48.4107 41.3648 48.5817C41.4571 48.7527 41.5905 48.8981 41.753 49.0047C42.5377 49.5198 43.0062 50.3858 43.0062 51.3215C43.0062 52.8485 41.7639 54.0906 40.2369 54.0906C38.71 54.0906 37.4677 52.8483 37.4677 51.3215C37.4677 51.2697 37.4696 51.2184 37.4723 51.1673C37.4811 51.0082 37.4574 50.8489 37.4026 50.6993C37.3478 50.5497 37.263 50.4128 37.1535 50.297C37.044 50.1813 36.912 50.0891 36.7656 50.0261C36.6192 49.9631 36.4615 49.9307 36.3022 49.9307H23.6975C23.5382 49.9308 23.3805 49.9633 23.2342 50.0263C23.0878 50.0893 22.9559 50.1815 22.8463 50.2972C22.7368 50.413 22.6521 50.5498 22.5972 50.6994C22.5424 50.849 22.5186 51.0082 22.5274 51.1673C22.5301 51.2184 22.5319 51.2697 22.5319 51.3215C22.5319 52.8485 21.2896 54.0906 19.7627 54.0906C18.2357 54.0906 16.9934 52.8483 16.9934 51.3215C16.9934 50.3858 17.462 49.5198 18.2466 49.0047C18.4091 48.8981 18.5425 48.7527 18.6348 48.5817C18.7271 48.4107 18.7755 48.2194 18.7755 48.025C18.7755 47.8307 18.7271 47.6394 18.6348 47.4684C18.5425 47.2974 18.4091 47.152 18.2466 47.0453C17.462 46.5303 16.9934 45.6643 16.9934 44.7286C16.9934 43.2016 18.2357 41.9594 19.7627 41.9594C21.2896 41.9594 22.5319 43.2017 22.5319 44.7286C22.5319 44.7803 22.5301 44.8317 22.5274 44.8828C22.5185 45.0419 22.5422 45.2011 22.597 45.3508C22.6519 45.5004 22.7366 45.6373 22.8462 45.753C22.9557 45.8688 23.0877 45.961 23.2341 46.0239C23.3804 46.0869 23.5381 46.1194 23.6975 46.1193H36.3022ZM29.9998 36.7383C28.4435 36.7383 27.1772 35.472 27.1772 33.9157C27.1772 32.3593 28.4435 31.0931 29.9998 31.0931C31.5562 31.0931 32.8224 32.3593 32.8224 33.9157C32.8224 35.472 31.5562 36.7383 29.9998 36.7383ZM57.6559 28.0989C57.6559 31.8067 48.3045 35.8985 34.3965 36.6248C34.9005 35.8111 35.1671 34.8727 35.1661 33.9156C35.1661 33.5463 35.1264 33.1862 35.0525 32.8386C39.6006 32.5404 43.8255 31.8617 47.3495 30.8562C47.9718 30.6785 48.3325 30.0301 48.1548 29.4077C47.9772 28.7853 47.329 28.4248 46.7064 28.6024C43.0899 29.6344 38.6789 30.3074 33.9211 30.5577C32.9729 29.4519 31.5673 28.7494 29.9998 28.7494C28.4241 28.7494 27.0118 29.4593 26.0634 30.5753C22.8385 30.4214 19.7739 30.0771 16.9503 29.5459C16.3149 29.426 15.7017 29.8448 15.582 30.4808C15.4624 31.1169 15.881 31.7294 16.5171 31.8492C19.1492 32.3444 21.9775 32.6832 24.9418 32.8625C24.8698 33.2089 24.8335 33.5619 24.8336 33.9157C24.8327 34.8729 25.0993 35.8112 25.6033 36.6249C11.6952 35.8986 2.34375 31.8068 2.34375 28.0989V19.4139L2.35968 19.4272C2.47205 19.5254 2.58637 19.6213 2.70257 19.7149C2.85923 19.8402 3.01885 19.9617 3.18128 20.0794L3.18374 20.0811C3.27117 20.1448 3.36035 20.2081 3.45117 20.271L3.49171 20.2989C3.57714 20.3576 3.66374 20.4161 3.7521 20.4741C3.76991 20.4858 3.7882 20.4975 3.80624 20.5092C3.89542 20.5672 3.98566 20.6251 4.07777 20.6824L4.11749 20.7068C5.50241 21.5632 7.21592 22.3418 9.23776 23.0299C14.801 24.9233 22.1743 25.9661 29.9997 25.9661C37.8251 25.9661 45.1984 24.9233 50.7617 23.0299C52.7837 22.3418 54.4974 21.5631 55.8824 20.7066L55.9216 20.6825C56.0139 20.6251 56.1042 20.5672 56.1935 20.5091L56.2474 20.4742C56.3358 20.4162 56.4225 20.3577 56.5079 20.299L56.5485 20.2711C56.6393 20.2082 56.7285 20.1449 56.8159 20.0813L56.8184 20.0795C56.9808 19.9619 57.1404 19.8403 57.2971 19.715C57.4132 19.6214 57.5276 19.5255 57.64 19.4274L57.6559 19.414V28.0989ZM7.52928 19.8543C8.5501 19.3876 9.94639 18.8517 11.8024 18.3313C16.8453 16.9173 23.3081 16.1387 29.9998 16.1387C36.6916 16.1387 43.1543 16.9174 48.1971 18.3313C50.0533 18.8516 51.4497 19.3875 52.4704 19.8543C47.6207 22.0156 39.6821 23.6224 29.9998 23.6224C20.3176 23.6224 12.379 22.0154 7.52928 19.8543ZM57.6485 15.1548C57.6434 15.2232 57.6352 15.2913 57.624 15.359L57.6225 15.3696C57.6098 15.4416 57.594 15.5129 57.575 15.5835C57.5616 15.6345 57.5465 15.6851 57.53 15.7353L57.5204 15.7647C57.4946 15.839 57.4658 15.9122 57.4342 15.9843C57.4218 16.0128 57.4083 16.0411 57.3948 16.0696C57.3679 16.1263 57.3395 16.1828 57.3088 16.2387L57.3006 16.2537C56.813 17.1338 55.8925 17.9036 54.9784 18.5047C53.7646 17.8055 51.8179 16.9124 48.8301 16.0746C43.587 14.6046 36.8997 13.7952 29.9999 13.7952C23.1002 13.7952 16.413 14.6047 11.1697 16.0747C8.18202 16.9124 6.23542 17.8055 5.02147 18.5049C4.10753 17.9038 3.18703 17.1339 2.69929 16.2538L2.69109 16.2388C2.66039 16.1828 2.63203 16.1263 2.60496 16.0695C2.5916 16.0411 2.57812 16.0129 2.56582 15.9845C2.55527 15.9606 2.54531 15.9366 2.53546 15.9126C2.51542 15.8633 2.49632 15.8141 2.47945 15.7649C2.47605 15.7552 2.473 15.7452 2.46972 15.7355C2.44857 15.6715 2.42993 15.6068 2.41382 15.5414C2.39958 15.4847 2.38738 15.4275 2.37726 15.3699L2.37574 15.3592C2.36456 15.2915 2.35638 15.2234 2.35125 15.1551C2.34653 15.0978 2.34403 15.0404 2.34375 14.983C2.34375 10.8967 13.7017 6.34375 29.9998 6.34375C46.298 6.34375 57.6559 10.8967 57.6559 14.983C57.6559 15.0402 57.6529 15.0975 57.6485 15.1548Z" fill="#F1CDB3"/>
<path d="M48.1765 11.6432C48.1309 11.4162 48.0197 11.2076 47.8567 11.0432C47.8022 10.989 47.7425 10.9404 47.6785 10.8979C47.5506 10.8129 47.4073 10.7536 47.2567 10.7233C47.1055 10.6928 46.9497 10.6928 46.7985 10.7233C46.7235 10.7385 46.6509 10.7608 46.5794 10.7901C46.5091 10.8194 46.4411 10.8557 46.3778 10.8979C46.3134 10.9401 46.2536 10.9893 46.1985 11.0432C46.1446 11.0971 46.0966 11.1581 46.0533 11.2213C45.9683 11.3493 45.909 11.4926 45.8787 11.6432C45.8635 11.7194 45.8564 11.7956 45.8564 11.8717C45.8564 11.9491 45.8636 12.0252 45.8787 12.1014C45.909 12.252 45.9683 12.3953 46.0533 12.5233C46.0966 12.5866 46.1446 12.6463 46.1985 12.7014C46.2537 12.7553 46.3135 12.8034 46.3778 12.8467C46.4411 12.8889 46.5091 12.9252 46.5794 12.9545C46.6509 12.9838 46.7236 13.0061 46.7985 13.0213C46.8747 13.0366 46.9521 13.0448 47.0282 13.0448C47.1044 13.0448 47.1818 13.0366 47.2567 13.0213C47.3317 13.0061 47.4057 12.9838 47.4759 12.9545C47.5462 12.9252 47.6141 12.8889 47.6785 12.8467C47.7418 12.8034 47.8028 12.7553 47.8567 12.7014C47.9106 12.6463 47.9598 12.5866 48.002 12.5233C48.087 12.3953 48.1463 12.252 48.1765 12.1014C48.1919 12.0252 48.2 11.9491 48.2 11.8717C48.2 11.7954 48.1919 11.7193 48.1765 11.6432Z" fill="#F1CDB3"/>
<path d="M43.4829 9.86056C39.4455 9.10095 34.85 8.69935 30.1935 8.69935C23.7488 8.69935 17.5185 9.46435 12.6504 10.8536C12.0282 11.0313 11.6675 11.6797 11.8451 12.302C11.9918 12.8171 12.4611 13.1527 12.9713 13.1527C13.0777 13.1527 13.186 13.1382 13.2934 13.1075C17.9582 11.7763 23.96 11.0432 30.1934 11.0432C34.707 11.0432 39.1525 11.4308 43.0495 12.164C43.6858 12.2834 44.2981 11.8651 44.4179 11.229C44.5376 10.5929 44.1189 9.98044 43.4829 9.86056Z" fill="#F1CDB3"/>
<path d="M14.121 29.6092C14.1058 29.5342 14.0835 29.4604 14.0542 29.3889C14.0249 29.3186 13.9886 29.2506 13.9464 29.1873C13.9038 29.1231 13.8547 29.0634 13.7999 29.0092C13.746 28.9553 13.6862 28.9061 13.6218 28.8627C13.5585 28.8205 13.4905 28.7854 13.4201 28.7561C13.3495 28.7265 13.2761 28.7041 13.201 28.6893C13.0498 28.6588 12.8941 28.6588 12.7429 28.6893C12.6678 28.7033 12.5939 28.7268 12.5237 28.7561C12.4523 28.7854 12.3843 28.8205 12.321 28.8627C12.2566 28.9061 12.1968 28.9553 12.1429 29.0092C12.089 29.0631 12.0398 29.1229 11.9976 29.1873C11.9554 29.2506 11.9191 29.3186 11.8898 29.3889C11.8605 29.4604 11.8382 29.5342 11.823 29.6092C11.8077 29.6842 11.7995 29.7615 11.7995 29.8377C11.8003 29.9914 11.8309 30.1434 11.8898 30.2854C11.9191 30.3568 11.9554 30.4248 11.9976 30.4881C12.0398 30.5525 12.089 30.6122 12.1429 30.6662C12.1968 30.7201 12.2566 30.7693 12.321 30.8115C12.3843 30.8549 12.4523 30.8901 12.5237 30.9193C12.5941 30.9486 12.6678 30.9721 12.7429 30.9861C12.8179 31.0014 12.8952 31.0096 12.9713 31.0096C13.0475 31.0096 13.1249 31.0014 13.201 30.9861C13.2761 30.9713 13.3495 30.9489 13.4201 30.9193C13.4909 30.8905 13.5585 30.8543 13.6218 30.8115C13.686 30.7693 13.7457 30.7206 13.7999 30.6662C13.9092 30.5575 13.9957 30.428 14.0542 30.2854C14.1134 30.1436 14.1436 29.9914 14.1432 29.8377C14.1432 29.7614 14.1361 29.6842 14.121 29.6092Z" fill="#F1CDB3"/>
</svg>

<svg width="60" height="60" fill="none" xmlns="http://www.w3.org/2000/svg"><path d="M57.297 10.251c-1.56-1.254-3.758-2.37-6.535-3.315C45.198 5.043 37.825 4 30 4 22.174 4 14.8 5.043 9.238 6.936c-2.778.945-4.976 2.06-6.535 3.315C.909 11.694 0 13.286 0 14.983v13.116c0 1.697.91 3.289 2.703 4.732 1.559 1.254 3.757 2.37 6.535 3.315 5.285 1.798 12.203 2.828 19.59 2.927v4.703h-4.041a5.121 5.121 0 0 0-5.024-4.16 5.119 5.119 0 0 0-5.113 5.112c0 1.226.435 2.387 1.204 3.297a5.097 5.097 0 0 0-1.204 3.296 5.119 5.119 0 0 0 5.113 5.113 5.122 5.122 0 0 0 5.024-4.16h10.426a5.121 5.121 0 0 0 5.024 4.16 5.119 5.119 0 0 0 5.113-5.113 5.097 5.097 0 0 0-1.204-3.296 5.097 5.097 0 0 0 1.204-3.297 5.119 5.119 0 0 0-5.113-5.112 5.121 5.121 0 0 0-5.024 4.16h-4.041v-4.703c7.387-.099 14.305-1.129 19.59-2.927 2.778-.946 4.976-2.06 6.535-3.315C59.091 31.388 60 29.796 60 28.099V14.983c0-1.697-.91-3.289-2.703-4.732zM36.302 46.12a1.172 1.172 0 0 0 1.17-1.236 2.772 2.772 0 0 1 2.765-2.923 2.772 2.772 0 0 1 2.77 2.769c0 .935-.47 1.801-1.254 2.316a1.172 1.172 0 0 0 0 1.96 2.765 2.765 0 0 1 1.253 2.316 2.772 2.772 0 0 1-2.77 2.77 2.772 2.772 0 0 1-2.764-2.924 1.173 1.173 0 0 0-1.17-1.236H23.698a1.173 1.173 0 0 0-1.17 1.236 2.772 2.772 0 0 1-2.765 2.923 2.772 2.772 0 0 1-2.77-2.768c0-.936.469-1.802 1.254-2.317a1.171 1.171 0 0 0 0-1.96 2.764 2.764 0 0 1-1.254-2.316 2.772 2.772 0 0 1 2.77-2.77 2.772 2.772 0 0 1 2.764 2.924 1.171 1.171 0 0 0 1.17 1.236h12.605zM30 36.74a2.826 2.826 0 0 1-2.823-2.823A2.826 2.826 0 0 1 30 31.093a2.826 2.826 0 0 1 2.822 2.823A2.826 2.826 0 0 1 30 36.738zm27.656-8.64c0 3.708-9.352 7.8-23.26 8.526a5.135 5.135 0 0 0 .657-3.786c4.548-.299 8.773-.977 12.297-1.983a1.172 1.172 0 0 0-.644-2.254c-3.616 1.032-8.027 1.705-12.785 1.956a5.155 5.155 0 0 0-7.858.017c-3.224-.154-6.29-.498-9.113-1.03a1.172 1.172 0 0 0-.433 2.304c2.632.495 5.46.834 8.425 1.013a5.169 5.169 0 0 0 .661 3.763c-13.908-.726-23.26-4.818-23.26-8.526v-8.685l.017.013a11.158 11.158 0 0 0 .821.652l.003.002c.087.064.176.127.267.19l.04.028c.086.059.173.117.261.175l.054.035c.09.058.18.116.272.173l.04.025c1.384.856 3.098 1.635 5.12 2.323C14.8 24.923 22.174 25.966 30 25.966c7.825 0 15.198-1.043 20.762-2.936 2.022-.688 3.735-1.467 5.12-2.323l.04-.024.272-.174.053-.035c.089-.058.175-.116.26-.175l.041-.028c.091-.063.18-.126.268-.19l.002-.002a12.599 12.599 0 0 0 .822-.652l.016-.013v8.685zM7.529 19.854c1.021-.466 2.417-1.002 4.273-1.523C16.845 16.917 23.308 16.14 30 16.14s13.154.778 18.197 2.192c1.856.52 3.253 1.056 4.273 1.523-4.85 2.162-12.788 3.768-22.47 3.768-9.682 0-17.621-1.607-22.47-3.768zm50.12-4.7a2.297 2.297 0 0 1-.025.205l-.002.01a2.48 2.48 0 0 1-.092.366l-.01.03a2.992 2.992 0 0 1-.086.22c-.012.028-.026.056-.04.085a3.2 3.2 0 0 1-.085.169l-.008.015c-.488.88-1.409 1.65-2.323 2.25-1.213-.699-3.16-1.592-6.148-2.43-5.243-1.47-11.93-2.279-18.83-2.279-6.9 0-13.587.81-18.83 2.28-2.988.837-4.935 1.73-6.149 2.43-.913-.601-1.834-1.371-2.322-2.251l-.008-.015a3.343 3.343 0 0 1-.086-.17l-.04-.084a2.97 2.97 0 0 1-.086-.22l-.01-.03a2.601 2.601 0 0 1-.092-.365l-.001-.01a2.318 2.318 0 0 1-.032-.377c0-4.086 11.358-8.64 27.656-8.64s27.656 4.554 27.656 8.64c0 .057-.003.114-.008.172z" fill="#F1CDB3"/><path d="M48.176 11.643a1.183 1.183 0 0 0-.498-.745 1.184 1.184 0 0 0-.88-.175 1.208 1.208 0 0 0-.6.32 1.185 1.185 0 0 0-.32 1.058 1.185 1.185 0 0 0 .32.6 1.274 1.274 0 0 0 .381.253 1.21 1.21 0 0 0 .45.09 1.148 1.148 0 0 0 .447-.09 1.242 1.242 0 0 0 .38-.253 1.183 1.183 0 0 0 .32-1.058zm-4.693-1.782c-4.037-.76-8.633-1.162-13.29-1.162-6.444 0-12.675.765-17.543 2.155a1.172 1.172 0 0 0 .643 2.254c4.665-1.332 10.667-2.065 16.9-2.065 4.514 0 8.96.388 12.857 1.121a1.172 1.172 0 0 0 .433-2.303zM14.12 29.609a1.22 1.22 0 0 0-.175-.422 1.202 1.202 0 0 0-.325-.325 1.181 1.181 0 0 0-1.478.147 1.124 1.124 0 0 0-.253.38 1.22 1.22 0 0 0-.09.449 1.184 1.184 0 0 0 .521.973c.063.044.131.08.203.108a1.149 1.149 0 0 0 1.098-.108 1.156 1.156 0 0 0 .432-.526 1.154 1.154 0 0 0 .067-.676z" fill="#F1CDB3"/></svg>
